X:131
M:4/4
L:1/8
Q:3/8=110
K:F
c>dc cAF|c>dc cAF|fed c>dB|AFF F2:|
|:B|Tf3Tg3|agf edc|fed cBA|BGG G2 c|\
fef gfg|agf edc|fed cdB|AFF F2:|

